X:402
M:C
L:1/8
K:C
e/f/|g<c e>d c2 Ge/f/|g>ce>c B<dde/f/|g>ca>c g>ce>c|A/B/c B/c/d G<cc:|
E|C>EG>c A/B/c G>c|C<c e>c B<d d>e|C>EG>c A/B/c G>c|
(3cef (3geg (3afa (3geg|(3fdc (3Bgf e<cc||

